resources/images/strokeLogo.svg

<svg fill="none" height="405" viewBox="0 0 462 405" width="462" xmlns="http://www.w3.org/2000/svg"><path d="m73.5 133v-131h386.5v384h-137v-109c-78.8 115.2-246.8333 131.333-321 125v-148.5c155 0 223.667-65.167 238-120.5z" stroke="#fff" stroke-width="3"/></svg>

<svg width="462" height="405" viewBox="0 0 462 405" fill="none" xmlns="http://www.w3.org/2000/svg">
<path d="M73.5 133V2H460V386H323V277C244.2 392.2 76.1667 408.333 2 402V253.5C157 253.5 225.667 188.333 240 133H73.5Z" stroke="white" stroke-width="3"/>
</svg>
